X:5042
T:Farewell to Erin
R:Reel
O:Ireland
M:4/4
K:ADor
A,3B, E3F|GEDB, G,B,DB,|\
A,3B, E3F|GED=F EA,A,G,|\
A,3B, E3F|GEDB, G,3g|
edeg a2ba|gedB BAA2 :: \
a2ab agef|gfga  gede|
a2ab agef|gedB BAA2 |\
agef g2ge|dedB GABd |\
(3cBA Bd egfa|gedB BAA2 ::
eA (3cBA eA (3cBA|B2BA GABd| \
eA (3cBA e2ef|gedB BAA2|\
eA (3cBA eA (3cBA|d2dB GABd|
(3cBA Bd egfa|gedB BAA2 :: \
ae^ce ae^ce|gede gede|
ae^ce a2af|gedB BAA2|\
agef g3e|dedB GBdB| \
(3cBA Bd egfa|gedB BAA2||
